X: 302
T: 2. La Turc
T: la Turc
B: Robert Landrin "Potpourri fran\,cois des contre-danse ancienne tel quil se danse chez la Reine ..." 1760 p.30 #2 dance 10 #2
S: http://memory.loc.gov/cgi-bin/query/D?musdibib:2:./temp/~ammem_EbRS:
Z: 2014 John Chambers <jc:trillian.mit.edu>
M: 2/2
L: 1/8
K: G
% - - - - - - - - - - - - - - - - - - - - - - - - -
|:\
d3e d2c2 | !+!B3A B2c2 | d3e d2d2 | G4 G4 :|\
|:\
"2.F."A3B A2G2 | !+!F3E F2G2 | A3B A2A2 | D4 D4 |
A3B A2G2 | !+!F3E F2G2 | A3B A2A2 | D6 d2 |\
D6 d2 | D6 d2 | D2d2 D2d2 | D4 D4 |
B3c B2A2 | G3F G2A2 | B3c B2A2 | G4 G4 |\
B3c B2A2 | G3F G2A2 | B3c B2A2 | G4 G4 :|
% - - - - - - - - - - - - - - - - - - - - - - - - -

%%sep 1 1 500
%%sep 1 1 500
